Papirus/16x16/apps/pureref.svg

<svg width="16" height="16" version="1.1" xmlns="http://www.w3.org/2000/svg">
 <rect transform="matrix(0,-1,-1,0,0,0)" x="-16" y="-16" width="16" height="16" rx=".85699999" ry=".85699999" style="fill:#8e8e8e"/>
 <path d="m8 1a6 6 0 0 0-6 6v8h4v-2.351562a6 6 0 0 0 2 0.351562 6 6 0 0 0 1.3398438-0.160156l2.6601562 2.660156 3-3-2.076172-2.076172a6 6 0 0 0 1.076172-3.423828 6 6 0 0 0-6-6z" style="fill:#dddddd"/>
 <path d="m8 2a5 5 0 0 0-5 5v7h2v-3.007812a5 5 0 0 0 3 1.007812 5 5 0 0 0 5-5 5 5 0 0 0-5-5z" style="fill:#333333"/>
 <circle cx="8" cy="7" r="3" style="fill:#ffffff"/>
</svg>

<svg xmlns="http://www.w3.org/2000/svg" width="16" height="16" version="1.1">
 <rect style="fill:#8e8e8e" width="16" height="16" x="0" y="0" rx=".8" ry=".8"/>
 <path style="fill:#dddddd" d="M 8,1 A 6,6 0 0 0 2,7 V 15 H 6 V 12.648 A 6,6 0 0 0 8,13 6,6 0 0 0 9.3398,12.84 L 12,15.5 15,12.5 12.924,10.424 A 6,6 0 0 0 14,7 6,6 0 0 0 8,1 Z"/>
 <path style="fill:#333333" d="M 8,2 A 5,5 0 0 0 3,7 V 14 H 5 V 10.992 A 5,5 0 0 0 8,12 5,5 0 0 0 13,7 5,5 0 0 0 8,2 Z"/>
 <circle style="fill:#ffffff" cx="8" cy="7" r="3"/>
</svg>
